X: 70
T:Petit Larousse
% Nottingham Music Database
S:Hugh Barwell, via PR
M:4/4
L:1/4
K:Am
e|"Am""a"ee/2f/2 " ""g#"ee/2f/2|" ""g"e/2d/2c/2B/2 " ""f#"A/2c/2e/2a/2|\
"B7""b"b3/2a/2 ^g^f|"E7"e2 B2|
"Am""a"ee/2f/2 " ""g#"ee/2f/2|" ""g"e/2d/2c/2B/2 " ""f#"Ac|\
"E7""b"B/2c/2d " ""e"cB| [1"Am"A2 "E7"e2:|
 [2"Am"A2 "D7"a2||"Gm"_bb/2a/2 gb|"Dm"a/2g/2f/2e/2 d2|"A7"^c/2d/2e/2c/2 Ac|\
"Dm"d/2^c/2d/2e/2 f/2g/2a|
"Gm"_bb/2a/2 gb|"Dm"a/2g/2f/2e/2 d2| [1"A7"^c/2d/2e/2c/2 Ac|"Dm"d2 "D7"a2:|\
[2"B7"^dB ^cd|"E"e2 "E7"e2||<end>
<start>
